X: 1
T: Joe O'Dowd's
M: 4/4
L: 1/8
R: reel
K: Dmaj
A2FA ~A2FA|B/c/d AF GFEG|FDDD FA~A2|1B/c/d eg fedB:|2B/c/d eg fede||
~f3a gBef|~g3e cA~A2|dfaf g2fg|abge fede|
(3fga fa gfef|(3gbg ed cA~A2|dgbd c2cB|Acea fedB|
